X: 7
T:Irish Rover, The
M:4/4
L:1/8
Q:120
R:March
K:A
EC|"A"A,2CD E2AB|cB2G "D"A2GF|"A"E2FEC2DC|"E"B,4z2EC|
"A"A,2CD E2AB|cB2G "D"A2GF|"A"E2GA "E"B2GE|"A"A4z2 "E"EE|
"A"A2ABc2cA|"E"B2BGE3E|"A"A2ABc2A2|"E"B>c BGE2EC|
"A"A,2CD E2AB|c2BG"D"A2GF|"A"E2GAB2c2|"E"B4 "A"A2||
